X: 20
T: Miss McLeod's
R: reel
M: 4/4
L: 1/8
K: Amaj
|:"A"A2 a2 fefa|c2 (cB) cdcB| A2 a2 fefa|"E"B2 (BA) BdcB|
"A"A2 a2 fefa|c2 (cB) c2 (ce)|"D"fefg agfe|"E"(f/g/a) (ec) BdcB:|
|:"A"A2 (cA) eAcA|c2 (cB) cdcB|A2 (cA) eAcA|"E"B2 (BA) BdcB|
"A"A2 (cA) eAcA|c2 (cB) c2 (ce)|"D"fefg agfe|"E"(f/g/a) (ec) BdcB:|


Tune 75	Setting 12558

